svg/hazelcast.svg

<?xml version="1.0" encoding="UTF-8"?>
<svg xmlns="http://www.w3.org/2000/svg" xmlns:xlink="http://www.w3.org/1999/xlink" width="30.365" height="32" viewBox="0 0 30.365 32">
<path fill-rule="nonzero" fill="rgb(17.647059%, 49.019608%, 89.411765%)" fill-opacity="1" d="M 26.90625 0 L 16.242188 0 L 16.242188 14.128906 L 30.359375 14.128906 L 30.359375 3.449219 C 30.359375 1.542969 28.8125 -0.00390625 26.90625 0 "/>
<path fill-rule="nonzero" fill="rgb(1.568627%, 10.196078%, 23.137255%)" fill-opacity="1" d="M 26.90625 17.871094 L 19.71875 17.871094 C 18.804688 17.871094 17.925781 18.234375 17.28125 18.882812 C 16.632812 19.527344 16.269531 20.40625 16.269531 21.320312 L 16.269531 31.992188 L 30.359375 31.992188 L 30.359375 21.347656 C 30.363281 20.433594 30 19.554688 29.351562 18.90625 C 28.703125 18.257812 27.824219 17.894531 26.90625 17.898438 M 12.101562 32 L 3.53125 32 C 1.582031 32 0 30.417969 0 28.46875 L 0 3.53125 C 0 1.582031 1.582031 0 3.53125 0 L 12.101562 0 Z M 12.101562 32 "/>
</svg>

<svg role="img" viewBox="0 0 30.365 32" height="32" width="30.365" xmlns="http://www.w3.org/2000/svg"><path d="M26.906 0H16.242v14.129H30.36V3.449A3.45 3.45 0 0 0 26.906 0" fill="rgb(17.647059%, 49.019608%, 89.411765%)"/><path d="M26.906 17.871H19.72c-.914 0-1.793.363-2.438 1.012a3.438 3.438 0 0 0-1.011 2.437v10.672h14.09V21.348a3.434 3.434 0 0 0-1.008-2.442 3.436 3.436 0 0 0-2.446-1.008M12.102 32h-8.57A3.533 3.533 0 0 1 0 28.469V3.53A3.533 3.533 0 0 1 3.531 0h8.57Zm0 0" fill="rgb(1.568627%, 10.196078%, 23.137255%)"/></svg>
